Catalina-light/places/16/folder-root.svg

<?xml version="1.0" encoding="UTF-8" standalone="no"?>
<!-- Created with Inkscape (http://www.inkscape.org/) -->

<svg
   xmlns:dc="http://purl.org/dc/elements/1.1/"
   xmlns:cc="http://creativecommons.org/ns#"
   xmlns:rdf="http://www.w3.org/1999/02/22-rdf-syntax-ns#"
   xmlns:svg="http://www.w3.org/2000/svg"
   xmlns="http://www.w3.org/2000/svg"
   xmlns:xlink="http://www.w3.org/1999/xlink"
   xmlns:sodipodi="http://sodipodi.sourceforge.net/DTD/sodipodi-0.dtd"
   xmlns:inkscape="http://www.inkscape.org/namespaces/inkscape"
   id="svg7384"
   sodipodi:docname="folder-root.svg"
   version="1.1"
   inkscape:version="0.92.4 5da689c313, 2019-01-14"
   height="36"
   width="36">
  <metadata
     id="metadata90">
    <rdf:RDF>
      <cc:Work
         rdf:about="">
        <dc:format>image/svg+xml</dc:format>
        <dc:type
           rdf:resource="http://purl.org/dc/dcmitype/StillImage" />
        <dc:title>Gnome Symbolic Icon Theme</dc:title>
      </cc:Work>
    </rdf:RDF>
  </metadata>
  <sodipodi:namedview
     inkscape:cy="15.088587"
     pagecolor="#ffffff"
     borderopacity="1"
     showborder="true"
     inkscape:bbox-paths="false"
     guidetolerance="10"
     inkscape:window-width="1920"
     showguides="true"
     inkscape:object-nodes="true"
     inkscape:snap-bbox="true"
     inkscape:pageshadow="2"
     inkscape:guide-bbox="true"
     inkscape:snap-nodes="true"
     bordercolor="#666666"
     objecttolerance="10"
     id="namedview88"
     showgrid="false"
     inkscape:window-maximized="1"
     inkscape:window-x="0"
     inkscape:snap-global="true"
     inkscape:window-y="26"
     gridtolerance="10"
     inkscape:window-height="1030"
     inkscape:snap-to-guides="true"
     inkscape:current-layer="layer13"
     inkscape:zoom="31.999998"
     inkscape:cx="10.390231"
     inkscape:snap-grids="true"
     inkscape:pageopacity="1">
    <inkscape:grid
       spacingx="1"
       spacingy="1"
       id="grid4866"
       empspacing="2"
       enabled="true"
       type="xygrid"
       snapvisiblegridlinesonly="true"
       visible="true"
       originx="0"
       originy="0" />
    <sodipodi:guide
       position="63.625003,39.500002"
       orientation="0,1"
       id="guide827"
       inkscape:locked="false" />
  </sodipodi:namedview>
  <title
     id="title9167">Gnome Symbolic Icon Theme</title>
  <defs
     id="defs7386">
    <linearGradient
       inkscape:collect="always"
       id="linearGradient853">
      <stop
         style="stop-color:#504e4e;stop-opacity:0.45454547"
         offset="0"
         id="stop849" />
      <stop
         style="stop-color:#504e4e;stop-opacity:0.64141417"
         offset="1"
         id="stop851" />
    </linearGradient>
    <linearGradient
       inkscape:collect="always"
       xlink:href="#linearGradient853"
       id="linearGradient857"
       x1="53.5"
       y1="31.0625"
       x2="53.5"
       y2="11.062499"
       gradientUnits="userSpaceOnUse"
       gradientTransform="translate(-35.5,2)" />
  </defs>
  <g
     inkscape:label="status"
     transform="translate(-442,-156)"
     inkscape:groupmode="layer"
     id="layer9"
     style="display:inline" />
  <g
     inkscape:label="devices"
     transform="translate(-442,-156)"
     inkscape:groupmode="layer"
     id="layer10" />
  <g
     inkscape:label="apps"
     transform="translate(-442,-156)"
     inkscape:groupmode="layer"
     id="layer11" />
  <g
     inkscape:label="actions"
     transform="translate(-442,-156)"
     inkscape:groupmode="layer"
     id="layer12" />
  <g
     inkscape:label="places"
     transform="translate(-442,-156)"
     inkscape:groupmode="layer"
     id="layer13">
    <path
       style="opacity:1;fill:url(#linearGradient857);fill-opacity:1;stroke:none;stroke-width:3;stroke-linecap:round;stroke-linejoin:round;stroke-miterlimit:4;stroke-dasharray:none;stroke-opacity:1"
       d="M 7.5 15.875 L 7.5 32 L 29.375 32 L 29.375 15.875 L 7.5 15.875 z M 18.4375 17.685547 A 3.8125002 3.8125002 0 0 1 22.25 21.498047 A 3.8125002 3.8125002 0 0 1 19.962891 24.986328 L 21.636719 30.189453 L 15.238281 30.189453 L 16.910156 24.990234 A 3.8125002 3.8125002 0 0 1 14.625 21.498047 A 3.8125002 3.8125002 0 0 1 18.4375 17.685547 z "
       transform="translate(442,156)"
       id="rect823" />
    <path
       id="path846"
       d="m 460.62695,157.04883 c -5.23788,-0.006 -10.30485,4.26141 -11.02929,11.82617 h -0.0977 c -1.63605,0 -3,1.36395 -3,3 V 188 c 0,1.63605 1.36395,3 3,3 h 21.875 c 1.63605,0 3,-1.36395 3,-3 v -16.125 c 0,-1.53982 -1.21262,-2.82324 -2.71875,-2.9707 -0.71492,-7.5655 -5.78549,-11.84947 -11.0293,-11.85547 z m -0.004,3 c 3.61829,0.005 7.3866,2.64991 8.02344,8.82617 h -16.04297 c 0.6346,-6.196 4.40017,-8.83032 8.01953,-8.82617 z M 449.5,171.875 h 21.875 V 188 H 449.5 Z"
       style="color:#000000;font-style:normal;font-variant:normal;font-weight:normal;font-stretch:normal;font-size:medium;line-height:normal;font-family:sans-serif;font-variant-ligatures:normal;font-variant-position:normal;font-variant-caps:normal;font-variant-numeric:normal;font-variant-alternates:normal;font-feature-settings:normal;text-indent:0;text-align:start;text-decoration:none;text-decoration-line:none;text-decoration-style:solid;text-decoration-color:#000000;letter-spacing:normal;word-spacing:normal;text-transform:none;writing-mode:lr-tb;direction:ltr;text-orientation:mixed;dominant-baseline:auto;baseline-shift:baseline;text-anchor:start;white-space:normal;shape-padding:0;clip-rule:nonzero;display:inline;overflow:visible;visibility:visible;opacity:1;isolation:auto;mix-blend-mode:normal;color-interpolation:sRGB;color-interpolation-filters:linearRGB;solid-color:#000000;solid-opacity:1;vector-effect:none;fill:#646363;fill-opacity:0.7474747;fill-rule:nonzero;stroke:none;stroke-width:3;stroke-linecap:butt;stroke-linejoin:miter;stroke-miterlimit:4;stroke-dasharray:none;stroke-dashoffset:0;stroke-opacity:1;color-rendering:auto;image-rendering:auto;shape-rendering:auto;text-rendering:auto;enable-background:accumulate"
       inkscape:connector-curvature="0" />
  </g>
  <g
     inkscape:label="mimetypes"
     transform="translate(-442,-156)"
     inkscape:groupmode="layer"
     id="layer14" />
  <g
     inkscape:label="emblems"
     transform="translate(-442,-156)"
     inkscape:groupmode="layer"
     id="layer15"
     style="display:inline" />
</svg>

<svg width="36" height="36" version="1.1" xmlns="http://www.w3.org/2000/svg">
<defs>
<linearGradient id="linearGradient857" x1="53.5" x2="53.5" y1="31.062" y2="11.062" gradientTransform="translate(-35.5,2)" gradientUnits="userSpaceOnUse"/>
</defs>
<g transform="translate(-442,-156)">
<path transform="translate(442,156)" d="m7.5 15.875v16.125h21.875v-16.125h-21.875zm10.938 1.8105a3.8125 3.8125 0 0 1 3.8125 3.8125 3.8125 3.8125 0 0 1-2.2871 3.4883l1.6738 5.2031h-6.3984l1.6719-5.1992a3.8125 3.8125 0 0 1-2.2852-3.4922 3.8125 3.8125 0 0 1 3.8125-3.8125z" fill="url(#linearGradient857)"/>
<path d="m460.63 157.05c-5.2379-6e-3 -10.305 4.2614-11.029 11.826h-0.0977c-1.636 0-3 1.364-3 3v16.125c0 1.636 1.364 3 3 3h21.875c1.636 0 3-1.364 3-3v-16.125c0-1.5398-1.2126-2.8232-2.7188-2.9707-0.71492-7.5655-5.7855-11.849-11.029-11.855zm-4e-3 3c3.6183 5e-3 7.3866 2.6499 8.0234 8.8262h-16.043c0.6346-6.196 4.4002-8.8303 8.0195-8.8262zm-11.123 11.826h21.875v16.125h-21.875z" color="#000000" color-rendering="auto" dominant-baseline="auto" fill="#646363" fill-opacity=".74747" image-rendering="auto" shape-rendering="auto" solid-color="#000000" style="font-feature-settings:normal;font-variant-alternates:normal;font-variant-caps:normal;font-variant-ligatures:normal;font-variant-numeric:normal;font-variant-position:normal;isolation:auto;mix-blend-mode:normal;shape-padding:0;text-decoration-color:#000000;text-decoration-line:none;text-decoration-style:solid;text-indent:0;text-orientation:mixed;text-transform:none;white-space:normal"/>
</g>
</svg>
